img/pay__02.svg

<svg width="48" height="29" viewBox="0 0 48 29" fill="none" xmlns="http://www.w3.org/2000/svg">
<path d="M46.3158 0H1.68421C0.754047 0 0 0.741928 0 1.65714V27.3429C0 28.2581 0.754047 29 1.68421 29H46.3158C47.246 29 48 28.2581 48 27.3429V1.65714C48 0.741928 47.246 0 46.3158 0Z" fill="#F3F2F2"/>
<path d="M38.1341 14.5006C38.1341 16.6981 37.2469 18.8056 35.6676 20.3594C34.0884 21.9133 31.9464 22.7863 29.713 22.7863C27.4796 22.7863 25.3377 21.9133 23.7585 20.3594C22.1792 18.8056 21.292 16.6981 21.292 14.5006C21.292 12.3031 22.1792 10.1955 23.7585 8.64167C25.3377 7.0878 27.4796 6.21484 29.713 6.21484C31.9464 6.21484 34.0884 7.0878 35.6676 8.64167C37.2469 10.1955 38.1341 12.3031 38.1341 14.5006Z" fill="#FFB600"/>
<path d="M29.713 6.21484C31.9447 6.22053 34.0832 7.09531 35.6612 8.64795C37.2392 10.2006 38.1283 12.3048 38.1341 14.5006C38.1341 16.6981 37.2469 18.8056 35.6676 20.3594C34.0884 21.9133 31.9464 22.7863 29.713 22.7863C27.4796 22.7863 25.3377 21.9133 23.7585 20.3594C22.1792 18.8056 21.292 16.6981 21.292 14.5006" fill="#F7981D"/>
<path d="M29.7129 6.21484C31.9445 6.22053 34.0831 7.09531 35.6611 8.64795C37.2391 10.2006 38.1282 12.3048 38.1339 14.5006C38.1348 15.5889 37.9176 16.6667 37.4947 17.6724C37.0718 18.6781 36.4516 19.5918 35.6695 20.3614C34.8873 21.131 33.9586 21.7412 32.9365 22.1573C31.9145 22.5734 30.819 22.7871 29.7129 22.7863" fill="#FF8500"/>
<path d="M18.1959 6.21484C15.9625 6.22649 13.8252 7.11062 12.2544 8.67272C10.6835 10.2348 9.80762 12.347 9.81945 14.5445C9.83129 16.742 10.7299 18.8449 12.3175 20.3905C13.9051 21.9361 16.0517 22.7979 18.2851 22.7863C20.3755 22.7775 22.3896 22.0128 23.9441 20.6378C24.2486 20.3673 24.5315 20.0743 24.7904 19.7612H23.0523C22.83 19.4942 22.6217 19.2163 22.4283 18.9284H25.4136C25.6031 18.6512 25.7671 18.3578 25.9037 18.0518H21.939C21.7937 17.7708 21.6744 17.4774 21.5828 17.1752H26.2144C26.4993 16.326 26.6496 15.4387 26.6599 14.5445C26.6468 13.9564 26.5871 13.3702 26.4813 12.7912H21.3167C21.37 12.4942 21.4446 12.2013 21.5399 11.9146H26.1715C26.0798 11.6124 25.9606 11.319 25.8152 11.038H21.8944C22.0405 10.7367 22.2042 10.444 22.3845 10.1613H25.3698C25.1871 9.84144 24.9622 9.54668 24.7011 9.2847H23.0523C23.3117 8.98565 23.5947 8.70722 23.8986 8.45198C22.3596 7.05232 20.3353 6.2838 18.2397 6.3035C18.2405 6.21484 18.2405 6.21484 18.1959 6.21484Z" fill="#FF5050"/>
<path d="M9.86621 14.5013C9.86533 15.5896 10.0825 16.6675 10.5054 17.6731C10.9283 18.6788 11.5486 19.5925 12.3307 20.3621C13.1129 21.1317 14.0415 21.742 15.0636 22.1581C16.0857 22.5741 17.1811 22.7879 18.2873 22.787C20.3776 22.7782 22.3917 22.0136 23.9462 20.6385C24.2507 20.3681 24.5337 20.075 24.7925 19.7619H23.0544C22.8321 19.495 22.6238 19.217 22.4304 18.9292H25.4157C25.6052 18.6519 25.7693 18.3585 25.9058 18.0525H21.9412C21.7958 17.7715 21.6766 17.4781 21.5849 17.1759H26.2165C26.5015 16.3267 26.6517 15.4394 26.662 14.5452C26.6489 13.9571 26.5892 13.3709 26.4835 12.7919H21.3188C21.3722 12.4949 21.4467 12.202 21.542 11.9153H26.1736C26.082 11.6131 25.9627 11.3197 25.8174 11.0387H21.8965C22.0427 10.7375 22.2063 10.4448 22.3866 10.1621H25.3719C25.1891 9.84246 24.9643 9.54798 24.7033 9.28626H23.0544C23.3138 8.98721 23.5968 8.70878 23.9007 8.45354C22.3617 7.05388 20.3375 6.28536 18.2418 6.30506H18.198" fill="#E52836"/>
<path d="M18.3705 22.7859C20.4608 22.7771 22.4749 22.0124 24.0295 20.6374C24.334 20.3669 24.6169 20.0739 24.8758 19.7608H23.1385C22.9162 19.4938 22.7079 19.2159 22.5145 18.928H25.4998C25.6893 18.6508 25.8533 18.3574 25.9899 18.0514H22.0244C21.879 17.7704 21.7598 17.477 21.6682 17.1748H26.2998C26.5847 16.3256 26.735 15.4383 26.7452 14.5441C26.7321 13.956 26.6724 13.3698 26.5667 12.7908H21.397C21.4504 12.4938 21.5249 12.2009 21.6202 11.9142H26.2518C26.1602 11.612 26.0409 11.3186 25.8956 11.0376H21.9747C22.1209 10.7363 22.2845 10.4436 22.4648 10.1609H25.4501C25.2674 9.84104 25.0426 9.54629 24.7815 9.2843H23.1326C23.392 8.98526 23.675 8.70682 23.9789 8.45159C22.4399 7.05192 20.4157 6.28341 18.32 6.3031H18.2812" fill="#CB2026"/>
<path d="M21.3478 16.6059L21.4817 15.8602C21.4083 15.8791 21.3338 15.8938 21.2586 15.9041C20.947 15.9041 20.9024 15.7284 20.947 15.6414L21.2139 14.1069H21.7041L21.8379 13.2742H21.3925L21.4817 12.748H20.5908C20.5908 12.748 20.0561 15.6414 20.0561 15.9919C20.0424 16.0892 20.0511 16.1882 20.0815 16.2818C20.1119 16.3753 20.1631 16.461 20.2315 16.5325C20.2999 16.604 20.3837 16.6596 20.4768 16.6951C20.5698 16.7306 20.6698 16.7451 20.7693 16.7376C20.9696 16.7359 21.1671 16.691 21.3478 16.6059Z" fill="white"/>
<path d="M21.676 15.2022C21.6535 15.4091 21.6785 15.6183 21.7489 15.8146C21.8194 16.0108 21.9335 16.189 22.0831 16.3361C22.2326 16.4833 22.4137 16.5956 22.6132 16.6649C22.8126 16.7343 23.0252 16.7588 23.2355 16.7367C23.5533 16.7566 23.8718 16.7118 24.1711 16.605L24.3496 15.7722C24.0539 15.9005 23.7369 15.9749 23.4141 15.9918C22.4339 15.9918 22.6124 15.29 22.6124 15.29H24.4389C24.5023 15.0305 24.547 14.7669 24.5728 14.5012C24.5855 14.3311 24.5608 14.1603 24.5003 14.0004C24.4399 13.8406 24.3452 13.6954 24.2226 13.5748C24.1 13.4542 23.9525 13.3609 23.79 13.3015C23.6275 13.242 23.4539 13.2177 23.281 13.2302C22.3446 13.1423 21.676 14.1068 21.676 15.2022ZM23.2355 13.9312C23.7256 13.9312 23.6364 14.5012 23.6364 14.5451H22.6562C22.6562 14.5012 22.7454 13.9312 23.2355 13.9312Z" fill="white"/>
<path d="M28.9339 16.6046L29.1125 15.6402C28.8754 15.758 28.6186 15.8324 28.3545 15.8597C27.7305 15.8597 27.4636 15.3775 27.4636 14.8514C27.4636 13.7991 27.9984 13.229 28.6224 13.229C28.9098 13.2385 29.1882 13.3297 29.424 13.4917L29.5579 12.5711C29.2313 12.4418 28.8848 12.3676 28.5331 12.3516C27.5082 12.3516 26.4834 13.2282 26.4834 14.8944C26.4834 15.9906 27.0181 16.7355 28.0834 16.7355C28.3709 16.7221 28.656 16.6783 28.9339 16.6046Z" fill="white"/>
<path d="M16.4044 13.1391C16.0403 13.1365 15.6785 13.196 15.3349 13.3148L15.201 14.0605C15.5134 13.9411 15.8461 13.8815 16.1813 13.8849C16.4928 13.8849 16.7606 13.9288 16.7606 14.1914C16.7606 14.3671 16.716 14.411 16.716 14.411H16.3109C15.553 14.411 14.7109 14.7176 14.7109 15.726C14.7109 16.5148 15.2457 16.6904 15.5573 16.6904C15.9097 16.6852 16.2459 16.5435 16.4928 16.296L16.4482 16.6465H17.2499L17.6061 14.2353C17.6163 14.0812 17.5914 13.9268 17.5333 13.7834C17.4752 13.6399 17.3854 13.511 17.2703 13.406C17.1552 13.301 17.0177 13.2226 16.868 13.1764C16.7182 13.1302 16.5598 13.1175 16.4044 13.1391ZM16.5829 15.112C16.5829 15.2437 16.4937 15.9447 15.9589 15.9447C15.9118 15.9458 15.865 15.9375 15.8213 15.9203C15.7775 15.9031 15.7378 15.8773 15.7045 15.8446C15.6712 15.8118 15.645 15.7727 15.6275 15.7297C15.61 15.6866 15.6016 15.6405 15.6027 15.5942C15.6027 15.3746 15.7366 15.0681 16.4044 15.0681C16.4614 15.0903 16.5212 15.105 16.5821 15.112H16.5829Z" fill="white"/>
<path d="M18.4756 16.6927C18.6422 16.7206 18.813 16.7118 18.9756 16.6669C19.1383 16.622 19.2888 16.5422 19.4164 16.4331C19.5439 16.324 19.6452 16.1885 19.7131 16.0362C19.7809 15.884 19.8135 15.7188 19.8087 15.5526C19.8087 14.4564 18.7392 14.676 18.7392 14.2377C18.7392 14.0181 18.9177 13.9311 19.2293 13.9311C19.3632 13.9311 19.8533 13.975 19.8533 13.975L19.9872 13.1862C19.71 13.122 19.4256 13.0925 19.1409 13.0984C18.4722 13.0984 17.8044 13.361 17.8044 14.2385C17.8044 15.2469 18.9185 15.159 18.9185 15.5534C18.9185 15.8161 18.607 15.86 18.3838 15.86C18.1116 15.8532 17.8418 15.8088 17.5821 15.7283L17.4482 16.5171C17.4954 16.6049 17.7177 16.6927 18.4756 16.6927Z" fill="white"/>
<path d="M36.3982 12.4414L36.2163 13.6254C36.1124 13.5012 35.9845 13.3984 35.8399 13.3232C35.6953 13.248 35.537 13.2017 35.3742 13.1871C34.5725 13.1871 33.8584 14.1516 33.8584 15.2917C33.8584 15.9935 34.2146 16.7384 34.9725 16.7384C35.1301 16.7381 35.2861 16.7069 35.4314 16.6468C35.5767 16.5866 35.7084 16.4986 35.8188 16.3879L35.7742 16.6945H36.6651L37.3338 12.4861L36.3982 12.4414ZM35.9973 14.7614C35.9973 15.2436 35.7742 15.8576 35.2841 15.8576C34.9725 15.8576 34.794 15.5949 34.794 15.1558C34.794 14.454 35.1055 14.0157 35.5072 14.0157C35.8188 14.0157 35.9973 14.2386 35.9973 14.7614Z" fill="white"/>
<path d="M11.5133 16.6497L12.048 13.4929L12.1373 16.6497H12.7613L13.92 13.4929L13.4299 16.6497H14.3655L15.0788 12.4414H13.6076L12.7167 15.0282L12.672 12.4414H11.3803L10.667 16.6497H11.5133Z" fill="white"/>
<path d="M25.4392 16.648C25.7061 15.2013 25.7508 14.0173 26.3748 14.2369C26.4254 13.887 26.5305 13.5469 26.6863 13.2285H26.5078C26.107 13.2285 25.7946 13.7547 25.7946 13.7547L25.8838 13.2724H25.0375L24.459 16.6919H25.4392V16.648Z" fill="white"/>
<path d="M31.0079 13.1419C30.6438 13.1393 30.282 13.1988 29.9385 13.3176L29.8046 14.0633C30.117 13.9439 30.4497 13.8843 30.7848 13.8876C31.0963 13.8876 31.3642 13.9316 31.3642 14.1942C31.3642 14.3699 31.3195 14.4138 31.3195 14.4138H30.9144C30.1566 14.4138 29.3145 14.7204 29.3145 15.7287C29.3145 16.5175 29.8492 16.6932 30.1608 16.6932C30.5132 16.688 30.8494 16.5463 31.0963 16.2988L31.0517 16.6493H31.8534L32.2096 14.2381C32.2229 14.0833 32.2001 13.9275 32.1431 13.7826C32.086 13.6377 31.9962 13.5075 31.8804 13.4018C31.7646 13.2961 31.6258 13.2178 31.4746 13.1728C31.3235 13.1278 31.1639 13.1172 31.0079 13.1419ZM31.2311 15.1148C31.2311 15.2465 31.1418 15.9475 30.6071 15.9475C30.56 15.9486 30.5132 15.9403 30.4694 15.9231C30.4257 15.9059 30.386 15.8801 30.3526 15.8473C30.3193 15.8146 30.2931 15.7755 30.2756 15.7324C30.2582 15.6894 30.2497 15.6433 30.2509 15.597C30.2509 15.3774 30.3848 15.0708 31.0526 15.0708C31.1856 15.1148 31.1856 15.1148 31.2302 15.1148H31.2311Z" fill="white"/>
<path d="M33.0113 16.648C33.2783 15.2013 33.3229 14.0173 33.9469 14.2369C33.9975 13.887 34.1026 13.5469 34.2585 13.2285H34.08C33.6791 13.2285 33.3667 13.7547 33.3667 13.7547L33.456 13.2724H32.6097L32.0303 16.6919H33.0105L33.0113 16.648Z" fill="white"/>
<path d="M19.9652 15.9919C19.9516 16.0892 19.9603 16.1882 19.9907 16.2818C20.021 16.3753 20.0723 16.461 20.1407 16.5325C20.2091 16.604 20.2929 16.6596 20.386 16.6951C20.479 16.7306 20.579 16.7451 20.6785 16.7376C20.9081 16.7387 21.1356 16.6939 21.3471 16.6059L21.481 15.8602C21.4076 15.8791 21.3331 15.8938 21.2579 15.9041C20.9463 15.9041 20.9016 15.7284 20.9463 15.6414L21.2132 14.1069H21.7033L21.8372 13.2742H21.3918L21.481 12.748" fill="#DCE5E5"/>
<path d="M22.124 15.2022C22.124 16.4293 22.5249 16.7367 23.2381 16.7367C23.5559 16.7566 23.8744 16.7118 24.1737 16.605L24.3522 15.7722C24.0565 15.9005 23.7395 15.9749 23.4167 15.9918C22.4364 15.9918 22.615 15.29 22.615 15.29H24.4415C24.5049 15.0305 24.5496 14.7669 24.5754 14.5012C24.5879 14.3311 24.5631 14.1604 24.5026 14.0006C24.4422 13.8408 24.3474 13.6957 24.2249 13.5751C24.1023 13.4545 23.9548 13.3613 23.7924 13.3018C23.63 13.2423 23.4565 13.2178 23.2836 13.2302C22.3472 13.1423 22.124 14.1068 22.124 15.2022ZM23.2381 13.9312C23.7282 13.9312 23.8175 14.5012 23.8175 14.5451H22.6588C22.6588 14.5012 22.748 13.9312 23.2381 13.9312Z" fill="#DCE5E5"/>
<path d="M28.9364 16.6046L29.1149 15.6402C28.8779 15.758 28.6211 15.8324 28.357 15.8597C27.733 15.8597 27.4661 15.3775 27.4661 14.8514C27.4661 13.7991 28.0008 13.229 28.6248 13.229C28.9122 13.2385 29.1907 13.3297 29.4265 13.4917L29.5604 12.5711C29.2337 12.4418 28.8873 12.3676 28.5355 12.3516C27.5107 12.3516 26.9355 13.2282 26.9355 14.8944C26.9355 15.9906 27.0248 16.7355 28.0943 16.7355C28.3789 16.7215 28.6612 16.6777 28.9364 16.6046Z" fill="#DCE5E5"/>
<path d="M15.201 14.104C15.5134 13.9847 15.8461 13.925 16.1813 13.9284C16.4928 13.9284 16.7606 13.9723 16.7606 14.2349C16.7606 14.4106 16.716 14.4545 16.716 14.4545H16.3109C15.553 14.4545 14.7109 14.7611 14.7109 15.7694C14.7109 16.5582 15.2457 16.7339 15.5573 16.7339C15.9097 16.7287 16.2459 16.587 16.4928 16.3395L16.4482 16.69H17.2499L17.6061 14.2789C17.6061 13.2705 16.7151 13.2266 16.3589 13.2266L15.201 14.104ZM17.0276 15.1116C16.9318 15.3256 16.7842 15.5134 16.5978 15.6585C16.4114 15.8036 16.1918 15.9017 15.9581 15.9443C15.911 15.9454 15.8642 15.9371 15.8204 15.9199C15.7767 15.9027 15.737 15.8769 15.7036 15.8442C15.6703 15.8114 15.6441 15.7723 15.6266 15.7293C15.6092 15.6862 15.6007 15.6401 15.6019 15.5938C15.6019 15.3742 15.7358 15.0676 16.4036 15.0676C16.6099 15.1002 16.8186 15.1151 17.0276 15.1124V15.1116Z" fill="#DCE5E5"/>
<path d="M17.4951 16.6049C17.831 16.6801 18.1759 16.7097 18.52 16.6927C18.6868 16.7212 18.8579 16.7128 19.021 16.6681C19.1841 16.6235 19.3351 16.5437 19.463 16.4346C19.5909 16.3255 19.6926 16.1897 19.7606 16.0372C19.8287 15.8846 19.8614 15.7191 19.8564 15.5526C19.8564 14.4564 18.7869 14.676 18.7869 14.2377C18.7869 14.0181 18.9654 13.9311 19.277 13.9311C19.4109 13.9311 19.901 13.975 19.901 13.975L20.0349 13.1862C19.7577 13.122 19.4733 13.0925 19.1886 13.0984C18.52 13.0984 18.2976 13.361 18.2976 14.2385C18.2976 15.2469 18.9663 15.159 18.9663 15.5534C18.9663 15.8161 18.6547 15.86 18.4315 15.86" fill="#DCE5E5"/>
<path d="M36.2198 13.6237C36.1154 13.4989 35.9868 13.3959 35.8415 13.3206C35.6962 13.2454 35.5371 13.1994 35.3735 13.1853C34.5718 13.1853 34.304 14.1498 34.304 15.2899C34.304 15.9917 34.2148 16.7366 34.9727 16.7366C35.1303 16.7363 35.2863 16.7052 35.4316 16.645C35.5769 16.5848 35.7086 16.4968 35.819 16.3861L35.7743 16.6927H36.6653L37.3339 12.4844L36.2198 13.6237ZM36.1752 14.7638C36.1752 15.246 35.7743 15.86 35.2842 15.86C34.9727 15.86 34.7941 15.5973 34.7941 15.1582C34.7941 14.4564 35.1057 14.0181 35.5074 14.0181C35.6025 14.0193 35.6962 14.0402 35.7826 14.0792C35.869 14.1183 35.9462 14.1747 36.0091 14.2449C36.072 14.315 36.1192 14.3974 36.1479 14.4866C36.1765 14.5758 36.1858 14.67 36.1752 14.7629V14.7638Z" fill="#DCE5E5"/>
<path d="M11.5133 16.6497L12.048 13.4929L12.1373 16.6497H12.7613L13.92 13.4929L13.4299 16.6497H14.3655L15.0788 12.4414H13.9638L12.7167 15.0282L12.672 12.4414H12.1828L10.667 16.6497H11.5133Z" fill="#DCE5E5"/>
<path d="M24.5039 16.648H25.4395C25.7073 15.2013 25.7511 14.0173 26.3751 14.2369C26.4257 13.887 26.5308 13.5469 26.6867 13.2285H26.5081C26.1073 13.2285 25.7949 13.7547 25.7949 13.7547L25.8841 13.2724" fill="#DCE5E5"/>
<path d="M29.8046 14.104C30.117 13.9846 30.4497 13.925 30.7848 13.9284C31.0963 13.9284 31.3642 13.9723 31.3642 14.2349C31.3642 14.4106 31.3195 14.4545 31.3195 14.4545H30.9144C30.1566 14.4545 29.3145 14.7611 29.3145 15.7694C29.3145 16.5582 29.8492 16.7339 30.1608 16.7339C30.5132 16.7287 30.8494 16.587 31.0963 16.3395L31.0517 16.69H31.8534L32.2096 14.2789C32.2096 13.2705 31.3187 13.2266 30.9616 13.2266L29.8046 14.104ZM31.6302 15.1116C31.5344 15.3256 31.3869 15.5134 31.2005 15.6585C31.0141 15.8036 30.7945 15.9017 30.5608 15.9443C30.5137 15.9454 30.4668 15.9371 30.4231 15.9199C30.3794 15.9027 30.3396 15.8769 30.3063 15.8442C30.273 15.8114 30.2468 15.7723 30.2293 15.7293C30.2118 15.6862 30.2034 15.6401 30.2046 15.5938C30.2046 15.3742 30.3385 15.0676 31.0062 15.0676C31.213 15.0989 31.4219 15.1139 31.6311 15.1124L31.6302 15.1116Z" fill="#DCE5E5"/>
<path d="M32.0771 16.648H33.0127C33.2797 15.2013 33.3243 14.0173 33.9483 14.2369C33.9989 13.887 34.104 13.5469 34.2599 13.2285H34.0813C33.6805 13.2285 33.3681 13.7547 33.3681 13.7547L33.4573 13.2724" fill="#DCE5E5"/>
</svg>

<svg width="48" height="29" fill="none" xmlns="http://www.w3.org/2000/svg"><path d="M46.316 0H1.684C.754 0 0 .742 0 1.657v25.686C0 28.258.754 29 1.684 29h44.632c.93 0 1.684-.742 1.684-1.657V1.657C48 .742 47.246 0 46.316 0z" fill="#F3F2F2"/><path d="M38.134 14.5a8.218 8.218 0 01-2.466 5.86 8.491 8.491 0 01-5.955 2.426 8.491 8.491 0 01-5.954-2.427 8.218 8.218 0 01-2.467-5.858c0-2.198.887-4.306 2.466-5.86a8.491 8.491 0 015.955-2.426c2.233 0 4.375.873 5.955 2.427a8.219 8.219 0 012.466 5.859z" fill="#FFB600"/><path d="M29.713 6.215c2.232.006 4.37.88 5.948 2.433a8.24 8.24 0 012.473 5.853 8.218 8.218 0 01-2.466 5.858 8.491 8.491 0 01-5.955 2.427 8.491 8.491 0 01-5.954-2.427 8.218 8.218 0 01-2.467-5.858" fill="#F7981D"/><path d="M29.713 6.215c2.232.006 4.37.88 5.948 2.433a8.24 8.24 0 012.473 5.853 8.163 8.163 0 01-.64 3.171 8.272 8.272 0 01-1.825 2.69 8.425 8.425 0 01-2.732 1.795 8.535 8.535 0 01-3.224.63" fill="#FF8500"/><path d="M18.196 6.215a8.49 8.49 0 00-5.942 2.458 8.217 8.217 0 00-2.435 5.871 8.22 8.22 0 002.498 5.846 8.493 8.493 0 005.968 2.396 8.598 8.598 0 005.66-2.148c.304-.27.587-.564.845-.877h-1.738a10.13 10.13 0 01-.624-.833h2.986c.19-.277.353-.57.49-.876h-3.965a5.18 5.18 0 01-.356-.877h4.631a8.58 8.58 0 00.446-2.63 11.133 11.133 0 00-.179-1.754h-5.164c.053-.297.128-.59.223-.876h4.632a5.18 5.18 0 00-.357-.877h-3.92c.146-.301.31-.594.49-.877h2.985a4.177 4.177 0 00-.669-.876h-1.649c.26-.3.543-.578.847-.833a8.297 8.297 0 00-5.66-2.149c.002-.088.002-.088-.043-.088z" fill="#FF5050"/><path d="M9.866 14.501c0 1.089.216 2.167.64 3.172a8.272 8.272 0 001.825 2.69 8.42 8.42 0 002.733 1.795 8.535 8.535 0 003.223.629 8.597 8.597 0 005.66-2.148c.304-.27.587-.564.846-.877h-1.739c-.222-.267-.43-.545-.624-.833h2.986c.19-.277.353-.57.49-.877H21.94a5.18 5.18 0 01-.356-.876h4.631c.285-.85.436-1.737.446-2.63a11.144 11.144 0 00-.178-1.754h-5.165a6.33 6.33 0 01.223-.877h4.632a5.18 5.18 0 00-.357-.876h-3.92c.146-.301.31-.594.49-.877h2.985a4.177 4.177 0 00-.669-.876h-1.649c.26-.299.543-.577.847-.832a8.297 8.297 0 00-5.66-2.149h-.043" fill="#E52836"/><path d="M18.37 22.786a8.598 8.598 0 005.66-2.149c.304-.27.587-.563.846-.876h-1.738a10.13 10.13 0 01-.623-.833H25.5c.19-.277.353-.57.49-.877h-3.966a5.172 5.172 0 01-.356-.876H26.3c.285-.85.435-1.737.445-2.63a11.144 11.144 0 00-.178-1.754h-5.17a6.33 6.33 0 01.223-.877h4.632a5.18 5.18 0 00-.356-.876h-3.921c.146-.302.31-.594.49-.877h2.985a4.177 4.177 0 00-.668-.877h-1.65c.26-.299.543-.577.847-.832a8.297 8.297 0 00-5.659-2.149h-.039" fill="#CB2026"/><path d="M21.348 16.606l.134-.746a1.963 1.963 0 01-.223.044c-.312 0-.357-.176-.312-.263l.267-1.534h.49l.134-.833h-.446l.09-.526h-.891s-.535 2.893-.535 3.244a.646.646 0 00.175.54.67.67 0 00.538.206c.2-.002.398-.047.579-.132zm.328-1.404a1.373 1.373 0 00.407 1.134 1.419 1.419 0 001.152.4c.318.02.637-.024.936-.131l.179-.833a2.706 2.706 0 01-.936.22c-.98 0-.802-.702-.802-.702h1.827c.063-.26.108-.523.134-.789a1.169 1.169 0 00-.35-.926 1.208 1.208 0 00-.942-.345c-.936-.088-1.605.877-1.605 1.972zm1.56-1.27c.49 0 .4.57.4.613h-.98c0-.044.09-.614.58-.614zm5.698 2.673l.178-.965a2.216 2.216 0 01-.757.22c-.625 0-.891-.482-.891-1.009 0-1.052.534-1.622 1.158-1.622.288.01.566.1.802.263l.134-.92a3.177 3.177 0 00-1.025-.22c-1.025 0-2.05.876-2.05 2.542 0 1.097.535 1.841 1.6 1.841.288-.013.573-.057.85-.13zm-12.53-3.465a3.204 3.204 0 00-1.07.175l-.133.745a2.67 2.67 0 01.98-.175c.312 0 .58.044.58.306 0 .176-.045.22-.045.22h-.405c-.758 0-1.6.307-1.6 1.315 0 .789.535.964.846.964a1.35 1.35 0 00.936-.394l-.045.35h.802l.356-2.41a1.023 1.023 0 00-.336-.83 1.061 1.061 0 00-.866-.267zm.179 1.972c0 .132-.09.833-.624.833a.353.353 0 01-.255-.1.343.343 0 01-.101-.25c0-.22.134-.527.801-.527a.715.715 0 00.178.044zm1.893 1.581a1.16 1.16 0 00.94-.26 1.126 1.126 0 00.393-.88c0-1.097-1.07-.877-1.07-1.315 0-.22.179-.307.49-.307.134 0 .624.044.624.044l.134-.789a3.436 3.436 0 00-.846-.088c-.669 0-1.337.263-1.337 1.14 0 1.009 1.115.921 1.115 1.315 0 .263-.312.307-.535.307a2.957 2.957 0 01-.802-.132l-.134.79c.047.087.27.175 1.028.175zm17.922-4.252l-.182 1.184a1.231 1.231 0 00-.842-.438c-.802 0-1.516.965-1.516 2.105 0 .701.357 1.446 1.114 1.446a1.207 1.207 0 00.847-.35l-.045.306h.891l.669-4.208-.936-.045zm-.4 2.32c0 .483-.224 1.097-.714 1.097-.312 0-.49-.263-.49-.702 0-.702.312-1.14.713-1.14.312 0 .49.223.49.745zM11.513 16.65l.535-3.157.09 3.157h.623l1.159-3.157-.49 3.157h.936l.713-4.209h-1.471l-.891 2.587-.045-2.587H11.38l-.713 4.209h.846zm13.927-.002c.266-1.447.31-2.63.935-2.411.05-.35.155-.69.311-1.008h-.178c-.401 0-.713.526-.713.526l.089-.483h-.846l-.579 3.42h.98v-.044zm5.568-3.506a3.203 3.203 0 00-1.07.176l-.133.745c.312-.12.645-.179.98-.175.311 0 .58.044.58.306 0 .176-.045.22-.045.22h-.406c-.757 0-1.6.306-1.6 1.315 0 .788.535.964.847.964a1.35 1.35 0 00.935-.394l-.044.35h.801l.357-2.41a1.008 1.008 0 00-.33-.837 1.043 1.043 0 00-.872-.26zm.223 1.973c0 .131-.09.832-.624.832a.354.354 0 01-.254-.1.34.34 0 01-.102-.25c0-.22.134-.526.802-.526.133.044.133.044.177.044h.001zm1.78 1.533c.267-1.447.312-2.63.936-2.411a3.4 3.4 0 01.311-1.008h-.178c-.4 0-.713.526-.713.526l.089-.483h-.846l-.58 3.42h.98l.001-.044z" fill="#fff"/><path d="M19.965 15.992a.648.648 0 00.176.54.67.67 0 00.538.206c.23 0 .457-.044.668-.132l.134-.746a1.963 1.963 0 01-.223.044c-.312 0-.356-.176-.312-.263l.267-1.534h.49l.134-.833h-.445l.089-.526m.643 2.454c0 1.227.4 1.535 1.114 1.535.318.02.636-.025.936-.132l.178-.833a2.706 2.706 0 01-.935.22c-.98 0-.802-.702-.802-.702h1.827c.063-.26.108-.523.133-.789a1.17 1.17 0 00-.35-.926 1.21 1.21 0 00-.941-.345c-.937-.088-1.16.877-1.16 1.972zm1.114-1.27c.49 0 .58.57.58.613h-1.16c0-.044.09-.614.58-.614zm5.698 2.673l.179-.965a2.215 2.215 0 01-.758.22c-.624 0-.89-.482-.89-1.009 0-1.052.534-1.622 1.158-1.622.287.01.566.1.802.263l.133-.92a3.177 3.177 0 00-1.024-.22c-1.025 0-1.6.876-1.6 2.542 0 1.097.089 1.841 1.158 1.841.285-.014.567-.057.842-.13zm-13.735-2.501c.312-.12.645-.179.98-.176.312 0 .58.044.58.307 0 .176-.045.22-.045.22h-.405c-.758 0-1.6.306-1.6 1.314 0 .79.535.965.846.965a1.35 1.35 0 00.936-.395l-.045.351h.802l.356-2.411c0-1.008-.89-1.052-1.247-1.052l-1.158.877zm1.827 1.008a1.438 1.438 0 01-.43.546 1.47 1.47 0 01-.64.286.354.354 0 01-.254-.1.343.343 0 01-.102-.25c0-.22.134-.526.802-.526.206.032.415.047.624.044zm.467 1.493c.336.075.68.105 1.025.088a1.158 1.158 0 00.943-.258 1.125 1.125 0 00.393-.882c0-1.097-1.07-.877-1.07-1.315 0-.22.18-.307.491-.307.134 0 .624.044.624.044l.134-.789a3.436 3.436 0 00-.846-.088c-.669 0-.891.263-.891 1.14 0 1.009.668.921.668 1.315 0 .263-.311.307-.535.307m17.789-2.236a1.232 1.232 0 00-.846-.439c-.802 0-1.07.965-1.07 2.105 0 .702-.09 1.447.669 1.447a1.205 1.205 0 00.846-.35l-.045.306h.891l.669-4.209-1.114 1.14zm-.045 1.14c0 .482-.4 1.096-.89 1.096-.312 0-.49-.263-.49-.702 0-.702.31-1.14.712-1.14a.69.69 0 01.502.227.668.668 0 01.166.518zM11.513 16.65l.535-3.157.09 3.157h.623l1.159-3.157-.49 3.157h.936l.713-4.209h-1.115l-1.247 2.587-.045-2.587h-.49l-1.515 4.209h.846zm12.991-.002h.935c.268-1.447.312-2.63.936-2.411a3.4 3.4 0 01.312-1.008h-.179c-.4 0-.713.526-.713.526l.09-.483m3.92.832a2.67 2.67 0 01.98-.176c.311 0 .58.044.58.307 0 .176-.045.22-.045.22h-.406c-.757 0-1.6.306-1.6 1.314 0 .79.535.965.847.965a1.35 1.35 0 00.935-.395l-.044.351h.801l.357-2.411c0-1.008-.891-1.052-1.248-1.052l-1.157.877zm1.825 1.008a1.438 1.438 0 01-.43.546 1.47 1.47 0 01-.64.286.354.354 0 01-.254-.1.343.343 0 01-.101-.25c0-.22.134-.526.801-.526.207.03.416.046.625.044zm.447 1.536h.936c.267-1.447.311-2.63.935-2.411a3.4 3.4 0 01.312-1.008h-.179c-.4 0-.713.526-.713.526l.09-.483" fill="#DCE5E5"/></svg>
